humanity-icon-theme/Humanity/actions/16/zoom-best-fit.svg

<?xml version="1.0" encoding="UTF-8" standalone="no"?>
<!-- Created with Inkscape (http://www.inkscape.org/) -->
<svg id="svg3222" xmlns="http://www.w3.org/2000/svg" height="16" width="16" version="1.0">
 <path id="path3220" style="fill:#4d4d4d;fill-rule:evenodd" d="m7.9402 10.056 5.5131 5.7901c0.09497 0.10582 0.23427 0.16205 0.38313 0.15465s0.29323-0.07774 0.39706-0.19345l0.94443-1.0513c0.19322-0.21977 0.19232-0.53772-0.0021-0.72168l-5.5455-5.3566-1.6893 1.3786z"/>
 <path id="path2447" style="fill-opacity:.58824;fill-rule:evenodd;stroke:#4d4d4d;stroke-width:2;fill:#fff" d="m6 11c-3 0-5-1.9411-5-5 0-3 1.9064-5 5-5 3 0 5 2 5 5 0 2.7758-1.8917 5-5 5z"/>
 <path id="rect2866" style="fill:#4d4d4d" d="m-8.7 7h0.4c0.1662 0 0.3 0.1338 0.3 0.3v1.4c0 0.1662-0.1338 0.3-0.3 0.3h-0.4c-0.1662 0-0.3-0.1338-0.3-0.3v-1.4c0-0.1662 0.1338-0.3 0.3-0.3zm0 1h1.4c0.1662 0 0.3 0.1338 0.3 0.3v0.4c0 0.1662-0.1338 0.3-0.3 0.3h-1.4c-0.1662 0-0.3-0.1338-0.3-0.3v-0.4c0-0.1662 0.1338-0.3 0.3-0.3zm0-3h0.4c0.1662 0 0.3-0.1338 0.3-0.3v-1.4c0-0.1662-0.1338-0.3-0.3-0.3h-0.4c-0.1662 0-0.3 0.1338-0.3 0.3v1.4c0 0.1662 0.1338 0.3 0.3 0.3zm0-1h1.4c0.1662 0 0.3-0.1338 0.3-0.3v-0.4c0-0.1662-0.1338-0.3-0.3-0.3h-1.4c-0.1662 0-0.3 0.1338-0.3 0.3v0.4c0 0.1662 0.1338 0.3 0.3 0.3zm5.4 1h-0.4c-0.1662 0-0.3-0.1338-0.3-0.3v-1.4c0-0.1662 0.1338-0.3 0.3-0.3h0.4c0.1662 0 0.3 0.1338 0.3 0.3v1.4c0 0.1662-0.1338 0.3-0.3 0.3zm0-1h-1.4c-0.1662 0-0.3-0.1338-0.3-0.3v-0.4c0-0.1662 0.1338-0.3 0.3-0.3h1.4c0.1662 0 0.3 0.1338 0.3 0.3v0.4c0 0.1662-0.1338 0.3-0.3 0.3zm0 3h-0.4c-0.1662 0-0.3 0.1338-0.3 0.3v1.4c0 0.1662 0.1338 0.3 0.3 0.3h0.4c0.1662 0 0.3-0.1338 0.3-0.3v-1.4c0-0.1662-0.1338-0.3-0.3-0.3zm0 1h-1.4c-0.1662 0-0.3 0.1338-0.3 0.3v0.4c0 0.1662 0.1338 0.3 0.3 0.3h1.4c0.1662 0 0.3-0.1338 0.3-0.3v-0.4c0-0.1662-0.1338-0.3-0.3-0.3z" transform="scale(-1,1)"/>
</svg>

<?xml version="1.0" encoding="UTF-8" standalone="no"?>
<!-- Created with Inkscape (http://www.inkscape.org/) -->

<svg
   xmlns:svg="http://www.w3.org/2000/svg"
   xmlns="http://www.w3.org/2000/svg"
   version="1.0"
   width="16"
   height="16"
   id="svg3222">
  <defs
     id="defs3224" />
  <path
     d="m 7.9402281,10.055724 5.5131089,5.790109 c 0.09497,0.105821 0.234268,0.162049 0.383128,0.154646 0.148861,-0.0074 0.293228,-0.07774 0.397058,-0.193447 l 0.944433,-1.051287 c 0.19322,-0.219769 0.192317,-0.537725 -0.0021,-0.721685 L 9.6294502,8.677402 7.9402281,10.055724 z"
     id="path3220"
     style="fill:#4d4d4d;fill-opacity:1;fill-rule:evenodd;stroke:none;display:inline" />
  <path
     d="M 6,11 C 3,11 1,9.0588916 1,6 1,3 2.906436,1 6,1 c 3,0 5,2 5,5 0,2.775844 -1.89168,5 -5,5 z"
     id="path2447"
     style="fill:#ffffff;fill-opacity:0.58823529;fill-rule:evenodd;stroke:#4d4d4d;stroke-width:2;stroke-linecap:butt;stroke-linejoin:miter;stroke-miterlimit:4;stroke-opacity:1;stroke-dasharray:none" />
  <path
     d="m -8.7,7 0.4,0 C -8.1338,7 -8,7.1338 -8,7.3 l 0,1.4 C -8,8.8662 -8.1338,9 -8.3,9 L -8.7,9 C -8.8662,9 -9,8.8662 -9,8.7 L -9,7.3 C -9,7.1338 -8.8662,7 -8.7,7 z m 0,1 1.4,0 C -7.1338,8 -7,8.1338 -7,8.3 l 0,0.4 C -7,8.8662 -7.1338,9 -7.3,9 L -8.7,9 C -8.8662,9 -9,8.8662 -9,8.7 L -9,8.3 C -9,8.1338 -8.8662,8 -8.7,8 z m 0,-3 0.4,0 C -8.1338,5 -8,4.8662 -8,4.7 L -8,3.3 C -8,3.1338 -8.1338,3 -8.3,3 L -8.7,3 C -8.8662,3 -9,3.1338 -9,3.3 l 0,1.4 C -9,4.8662 -8.8662,5 -8.7,5 z m 0,-1 1.4,0 C -7.1338,4 -7,3.8662 -7,3.7 L -7,3.3 C -7,3.1338 -7.1338,3 -7.3,3 L -8.7,3 C -8.8662,3 -9,3.1338 -9,3.3 l 0,0.4 C -9,3.8662 -8.8662,4 -8.7,4 z m 5.4,1 -0.4,0 C -3.8662,5 -4,4.8662 -4,4.7 L -4,3.3 C -4,3.1338 -3.8662,3 -3.7,3 l 0.4,0 C -3.1338,3 -3,3.1338 -3,3.3 l 0,1.4 C -3,4.8662 -3.1338,5 -3.3,5 z m 0,-1 -1.4,0 C -4.8662,4 -5,3.8662 -5,3.7 L -5,3.3 C -5,3.1338 -4.8662,3 -4.7,3 l 1.4,0 C -3.1338,3 -3,3.1338 -3,3.3 l 0,0.4 C -3,3.8662 -3.1338,4 -3.3,4 z m 0,3 -0.4,0 C -3.8662,7 -4,7.1338 -4,7.3 l 0,1.4 C -4,8.8662 -3.8662,9 -3.7,9 l 0.4,0 C -3.1338,9 -3,8.8662 -3,8.7 L -3,7.3 C -3,7.1338 -3.1338,7 -3.3,7 z m 0,1 -1.4,0 C -4.8662,8 -5,8.1338 -5,8.3 l 0,0.4 C -5,8.8662 -4.8662,9 -4.7,9 l 1.4,0 C -3.1338,9 -3,8.8662 -3,8.7 L -3,8.3 C -3,8.1338 -3.1338,8 -3.3,8 z"
     transform="scale(-1,1)"
     id="rect2866"
     style="fill:#4d4d4d;fill-opacity:1;stroke:none" />
</svg>
